X:1
T:Mr George A Young
T:Mr George A Young
T:William Marshall
C:William Marshall
%%score { ( 1 4 ) | ( 2 3 ) }
L:1/8
M:4/4
K:Eb
V:1 treble nm="Slowly"
V:4 treble 
V:2 bass 
V:3 bass 
V:1
 B | A/G/F/E/ (B,>E) Ac B2 | G>A B>e a>g f>F | B>A GE [EA]<c [EB]2 | ge g/f/e/d/ [Ge]2 [Ge]B | %5
 A/G/F/E/ (B,>E) [EA]c [EB]2 | G>A B>e a>g f>F | B>A GE [EA]<c [EB]2 | [Gg]>e g/f/e/d/ e2 e || B, | %10
 G,EB,G EBGe | B,FDB FdBf | E>F Eg D>E Df | [Ee]>B A/G/F/E/ [B,D]/E/F/D/ B,>A, | G,EB,G EBGe | %15
 B,FDB FdBf | e>E c/B/A/G/ A/B/c/d/ [Ee]>E | (F/E/)D/C/ (B,/C/)D/B,/ [G,E]2 [G,E] |] %18
V:2
 z | [E,,E,]2 [E,,E,]2 [C,C][A,,A,] [G,,G,]2 | [E,,E,]2 [E,,E,]2 [B,,B,]2 [B,,B,]2 | %3
 [E,B,E]2 [E,G,B,]2 [E,C]A, [E,G,]2 | [E,E]2 [B,,B,]2 [E,,E,]2 [E,,E,]2 | %5
 [E,,E,]2 [E,,E,]2 [C,C][A,,A,] [G,,G,]2 | [E,,E,]2 [E,,E,]2 [B,,B,]2 [B,,B,]2 | %7
 [E,G,B,E]2 [E,G,B,]2 [E,C]A, [E,G,]2 | [E,E]2 [B,,B,]2 [E,,E,]2 [E,,E,] || x | %10
 E,,E,E,,E,E,,E,E,,E, | B,,B,B,,B,B,,B,B,,B, | [E,G,B,]2 [E,G,B,]2 [B,,F,B,]2 [B,,F,A,]2 | %13
 [E,G,B,]2 CA, [B,,F,A,]2 [B,,,D,F,]2 | E,,E,E,,E,E,,E,E,,E, | G,,B,B,,B,B,,B,B,,B, | %16
 [E,G,E]2 [E,G,E]2 CA, [E,G,]2 | [B,,F,A,]2 [B,,F,A,]2 [E,,E,]2 [E,,E,] |] %18
V:3
 x | x8 | x8 | x4 E,2 x2 | x8 | x8 | x8 | x4 E,2 x2 | x7 || x | x8 | x8 | x8 | x2 E,2 x4 | x8 | %15
 x8 | x4 E,2 x2 | x7 |] %18
V:4
 x | x8 | x8 | x8 | G2 G2 x4 | x8 | x8 | x8 | G2 G2 G2 G || x | x8 | x8 | x8 | x2 E2 x4 | x8 | x8 | %16
 x4 E2 x2 | x7 |] %18

